X: 26962
T: Miss Charlotte Alston Stewart's
R: reel
M: 4/4
K: Amixolydian
e|c2 Ac B2GB|ABcd eaed|cAeA B2Gf|ecdB AAA:|
e|ceae f2df|ecac fBBd|ceae fdfa|ecdB AAAe|
ceae f2df|ecac fBBd|dfca Bcdf|ecdB AAA||
A|cccA dddA|cccA BBBA|cccA dddB|ecdB AAA:|

